X: 1
T: Joyful Chagrin
C: Vince O'Donnell
R: reel
Z: 2017 John Chambers <jc:trillian.mit.edu>
S: handout at Roaring Jelly practice
M: C|
L: 1/8
K: Bb
|:\
"Bb"B,2DF Bd"F7"cA | "Bb"BABF DB,CD |\
"Eb"EGBE "Bb"DFBD | "C7"C=EGB "F7"AFEC ||\
"Bb"B,2DF Bd"F7"cA | "Bb"BcdB FDEF |
"Eb"GBEG "Bb"GFED | "F7"DCB,A, "Bb"B,4 :|\
|:\
"Bb"dBFd "F"cAFA | "Eb"GEB,G "Bb"FDB,D | "Eb"EcBA "Bb"Bdfb |\
[1,3 "Cm"gfed "F7"cAF2 :|[2,4 "F7"gecA "Bb"B4 :|
